X:15
T:My Mind Will Never Be Easy (slip jig)
I:titlefont Times-Roman 24
I:partsfont Times-Roman 20
M:9/8
L:1/8
R:slip jig
O:Trad. (2.10.2014/NS)
K:Em
gf|"Em"edB B2"D"A G2A|"C"Bdd ~d2B dgf|"C"edB B2"D"A G2A|"Em"Bee ~e2d egf|
"Em"edB B2"D"A G2A|"C"Bdd ~d2B ~d3|"C"def gd"D"B G2A|"Em"Bee ~e2d ~e3||
|:"C"def ga"Em/H"f g2d|"D/A"Bdd ~d2B ~d2B| "C"deg ag"D"e dBA|"Em"Bee ~e2d ~ e3:|
%%vskip
W:gf | edB B2A G2A | Bdd ~d2B dgf | edB B2A G2A | Bee ~e2d egf |
W:      edB B2A G2A | Bdd ~d2B ~d3 | def gdB G2A | Bee ~e2d ~e3 ||
W:   |: def gaf g2d|Bdd ~d2B ~d2B| deg age dBA|Bee ~e2d ~ e3:|
%%vskip
K:F#m
%%vskip
P:The Cock and the Hen
"F#m"F2F FEF "C#m"(Bc)A|"F#m"F2F FEF AFE
%%vskip
%%begintext
|: F#m  C#m | F#m     |F#m  C#m | D   E  :|
|: A       D     | A      E | A      D      | D       :|
%%endtext
%%vskip
%%vskip
%%vskip
%%vskip
%%vskip
%%vskip
%%vskip
W:Dervish: Ash Plant Set (Playing With Fire 2008)

